packages/ffe-icons/icons/open/400/sm/lte_mobiledata.svg

<svg xmlns="http://www.w3.org/2000/svg" height="20" viewBox="0 -960 960 960" width="20"><path d="M144-371.96v-215.76q0-15.28 10.29-25.78 10.29-10.5 25.5-10.5t25.71 10.35Q216-603.3 216-588v180h84q15.3 0 25.65 10.29Q336-387.42 336-372.21t-10.35 25.71Q315.3-336 300-336H180q-15.3 0-25.65-10.34Q144-356.68 144-371.96ZM420-552h-48q-15.3 0-25.65-10.29Q336-572.58 336-587.79t10.35-25.71Q356.7-624 372-624h168q15.3 0 25.65 10.29Q576-603.42 576-588.21t-10.35 25.71Q555.3-552 540-552h-48v179.72q0 15.28-10.29 25.78-10.29 10.5-25.5 10.5t-25.71-10.35Q420-356.7 420-372v-180Zm204 180.04v-215.76q0-15.28 10.35-25.78Q644.7-624 660-624h120q15.3 0 25.65 10.29Q816-603.42 816-588.21t-10.35 25.71Q795.3-552 780-552h-84v36h84q15.3 0 25.65 10.29Q816-495.42 816-480.21t-10.35 25.71Q795.3-444 780-444h-84v36h84q15.3 0 25.65 10.29Q816-387.42 816-372.21t-10.35 25.71Q795.3-336 780-336H660q-15.3 0-25.65-10.34Q624-356.68 624-371.96Z"/></svg>

<svg xmlns="http://www.w3.org/2000/svg" height="20" viewBox="0 -960 960 960" width="20"><path d="M144-371.96v-215.757Q144-603 154.289-613.5q10.29-10.5 25.5-10.5Q195-624 205.5-613.65 216-603.3 216-588v180h84q15.3 0 25.65 10.289 10.35 10.29 10.35 25.5Q336-357 325.65-346.5 315.3-336 300-336H180q-15.3 0-25.65-10.338Q144-356.677 144-371.96ZM420-552h-48q-15.3 0-25.65-10.289-10.35-10.29-10.35-25.5Q336-603 346.35-613.5 356.7-624 372-624h168q15.3 0 25.65 10.289 10.35 10.29 10.35 25.5Q576-573 565.65-562.5 555.3-552 540-552h-48v179.724Q492-357 481.711-346.5q-10.29 10.5-25.5 10.5Q441-336 430.5-346.35 420-356.7 420-372v-180Zm204 180.04v-215.757Q624-603 634.35-613.5 644.7-624 660-624h120q15.3 0 25.65 10.289 10.35 10.29 10.35 25.5Q816-573 805.65-562.5 795.3-552 780-552h-84v36h84q15.3 0 25.65 10.289 10.35 10.29 10.35 25.5Q816-465 805.65-454.5 795.3-444 780-444h-84v36h84q15.3 0 25.65 10.289 10.35 10.29 10.35 25.5Q816-357 805.65-346.5 795.3-336 780-336H660q-15.3 0-25.65-10.338Q624-356.677 624-371.96Z"/></svg>
